(G-CODE GENERATED BY FLATCAM v8.994 - www.flatcam.org - Version Date: 2020/11/7)

(Name: dc3e6ff7837bd791959b1455238c054e.svg_cnc)
(Type: G-code from Geometry)
(Units: MM)

(Created on Friday, 07 June 2024 at 18:36)

(This preprocessor is the default preprocessor used by FlatCAM.)
(It is made to work with MACH3 compatible motion controllers.)

(TOOL DIAMETER: 2.4 mm)
(Feedrate_XY: 120.0 mm/min)
(Feedrate_Z: 60.0 mm/min)
(Feedrate rapids 1500.0 mm/min)

(Z_Cut: -2.4 mm)
(Z_Move: 2.0 mm)
(Z Start: None mm)
(Z End: 15.0 mm)
(X,Y End: None mm)
(Steps per circle: 64)
(Preprocessor Geometry: default)

(X range:   34.6916 ...  721.0000  mm)
(Y range:   64.0000 ...  671.7744  mm)

(Spindle Speed: 0.0 RPM)
G21
G90
G94

G01 F120.00

M5
G00 Z15.0000
G00 X0.0000 Y0.0000
T1
M6    
(MSG, Change to Tool Dia = 2.4000)
M0
G00 Z15.0000

M03
G01 F120.00
G00 X110.3000 Y168.9000
G01 F60.00
G01 Z-2.4000
G01 F120.00
G01 X110.4651 Y168.8614
G01 X110.7095 Y168.8027
G01 X110.8702 Y168.7630
G01 X111.1074 Y168.7027
G01 X111.2629 Y168.6621
G01 X111.4919 Y168.6007
G01 X111.7157 Y168.5389
G01 X111.9338 Y168.4768
G01 X112.0758 Y168.4354
G01 X112.2838 Y168.3732
G01 X112.4851 Y168.3111
G01 X112.6796 Y168.2493
G01 X112.8053 Y168.2083
G01 X112.9877 Y168.1473
G01 X113.1622 Y168.0870
G01 X113.3287 Y168.0276
G01 X113.4867 Y167.9692
G01 X113.6360 Y167.9120
G01 X113.7763 Y167.8561
G01 X113.9071 Y167.8016
G01 X113.9485 Y167.7839
G01 X114.0281 Y167.7489
G01 X114.0663 Y167.7317
G01 X114.1391 Y167.6979
G01 X114.2073 Y167.6649
G01 X114.2397 Y167.6488
G01 X114.3008 Y167.6173
G01 X114.3295 Y167.6019
G01 X114.3833 Y167.5718
G01 X114.4083 Y167.5572
G01 X114.4545 Y167.5288
G01 X114.4756 Y167.5150
G01 X114.4955 Y167.5014
G01 X114.5140 Y167.4882
G01 X114.5313 Y167.4753
G01 X114.5471 Y167.4627
G01 X114.5617 Y167.4503
G01 X114.5748 Y167.4383
G01 X114.5866 Y167.4266
G01 X114.5970 Y167.4153
G01 X114.6060 Y167.4043
G01 X114.6136 Y167.3936
G01 X114.6197 Y167.3832
G01 X114.6244 Y167.3732
G01 X114.6277 Y167.3636
G01 X114.6295 Y167.3543
G01 X114.6298 Y167.3454
G01 X114.6286 Y167.3369
G01 X114.6259 Y167.3287
G01 X114.6218 Y167.3210
G01 X114.6160 Y167.3136
G01 X114.6088 Y167.3066
G01 X114.6000 Y167.3000
G01 X114.5937 Y167.2943
G01 X114.5865 Y167.2890
G01 X114.5783 Y167.2839
G01 X114.5692 Y167.2791
G01 X114.5591 Y167.2746
G01 X114.5482 Y167.2704
G01 X114.5363 Y167.2665
G01 X114.5235 Y167.2629
G01 X114.4953 Y167.2564
G01 X114.4635 Y167.2511
G01 X114.4283 Y167.2469
G01 X114.3897 Y167.2438
G01 X114.3477 Y167.2418
G01 X114.3024 Y167.2408
G01 X114.2538 Y167.2409
G01 X114.2021 Y167.2420
G01 X114.1473 Y167.2442
G01 X114.0593 Y167.2492
G01 X113.9969 Y167.2538
G01 X113.9316 Y167.2594
G01 X113.8635 Y167.2660
G01 X113.7560 Y167.2775
G01 X113.6810 Y167.2864
G01 X113.6033 Y167.2962
G01 X113.5230 Y167.3068
G01 X113.3978 Y167.3245
G01 X113.2223 Y167.3509
G01 X113.1311 Y167.3654
G01 X112.9900 Y167.3887
G01 X112.8931 Y167.4052
G01 X112.7439 Y167.4314
G01 X112.6419 Y167.4498
G01 X112.4851 Y167.4788
G01 X112.2695 Y167.5199
G01 X111.9901 Y167.5753
G01 X111.7005 Y167.6347
G01 X111.4016 Y167.6980
G01 X111.0943 Y167.7650
G01 X110.7795 Y167.8353
G01 X110.4582 Y167.9089
G01 X110.1313 Y167.9855
G01 X109.7997 Y168.0648
G01 X109.4642 Y168.1467
G01 X109.1259 Y168.2309
G01 X108.7856 Y168.3171
G01 X108.4442 Y168.4053
G01 X108.1026 Y168.4950
G01 X107.7618 Y168.5863
G01 X107.4227 Y168.6787
G01 X107.0862 Y168.7720
G01 X106.8194 Y168.8473
G01 X106.4899 Y168.9419
G01 X106.2298 Y169.0178
G01 X105.9102 Y169.1129
G01 X105.6593 Y169.1889
G01 X105.4132 Y169.2648
G01 X105.1723 Y169.3404
G01 X104.9955 Y169.3969
G01 X104.8794 Y169.4344
G01 X104.6522 Y169.5090
G01 X104.4317 Y169.5830
G01 X104.2186 Y169.6562
G01 X104.0131 Y169.7286
G01 X103.8158 Y169.8001
G01 X103.7204 Y169.8354
G01 X103.6272 Y169.8704
G01 X103.5363 Y169.9051
G01 X103.4477 Y169.9395
G01 X103.3616 Y169.9736
G01 X103.2779 Y170.0074
G01 X103.1967 Y170.0407
G01 X103.1181 Y170.0737
G01 X103.0421 Y170.1064
G01 X102.9688 Y170.1386
G01 X102.8640 Y170.1862
G01 X102.7977 Y170.2173
G01 X102.7343 Y170.2481
G01 X102.6447 Y170.2933
G01 X102.5888 Y170.3228
G01 X102.5360 Y170.3518
G01 X102.4863 Y170.3803
G01 X102.4627 Y170.3944
G01 X102.4179 Y170.4221
G01 X102.3764 Y170.4493
G01 X102.3382 Y170.4759
G01 X102.3035 Y170.5019
G01 X102.2723 Y170.5274
G01 X102.2446 Y170.5522
G01 X102.2321 Y170.5644
G01 X102.2205 Y170.5764
G01 X102.2098 Y170.5883
G01 X102.2000 Y170.6000
G01 X102.1673 Y170.6259
G01 X102.1397 Y170.6508
G01 X102.1171 Y170.6746
G01 X102.0995 Y170.6973
G01 X102.0868 Y170.7187
G01 X102.0789 Y170.7390
G01 X102.0757 Y170.7581
G01 X102.0772 Y170.7759
G01 X102.0833 Y170.7925
G01 X102.0939 Y170.8077
G01 X102.1088 Y170.8216
G01 X102.1282 Y170.8341
G01 X102.1518 Y170.8452
G01 X102.1796 Y170.8549
G01 X102.2116 Y170.8631
G01 X102.2475 Y170.8698
G01 X102.2875 Y170.8750
G01 X102.3313 Y170.8786
G01 X102.3790 Y170.8807
G01 X102.4304 Y170.8811
G01 X102.4855 Y170.8799
G01 X102.5441 Y170.8770
G01 X102.6063 Y170.8723
G01 X102.6719 Y170.8660
G01 X102.7408 Y170.8579
G01 X102.8131 Y170.8479
G01 X102.8885 Y170.8362
G01 X102.9671 Y170.8226
G01 X103.0487 Y170.8070
G01 X103.1333 Y170.7896
G01 X103.2208 Y170.7702
G01 X103.3112 Y170.7488
G01 X103.4043 Y170.7254
G01 X103.5000 Y170.7000
G01 X103.7077 Y170.6438
G01 X103.9518 Y170.5784
G01 X104.5379 Y170.4231
G01 X105.1895 Y170.2515
G01 X107.1000 Y169.7496
G01 X108.0648 Y169.4953
G01 X108.7000 Y169.3272
G01 X109.2777 Y169.1737
G01 X109.7930 Y169.0361
G01 X110.3000 Y168.9000
G00 Z2.0000
G00 X78.0000 Y203.7000
G01 F60.00
G01 Z-2.4000
G01 F120.00
G01 X77.9992 Y203.6897
G01 X77.9969 Y203.6782
G01 X77.9931 Y203.6654
G01 X77.9877 Y203.6515
G01 X77.9809 Y203.6364
G01 X77.9726 Y203.6201
G01 X77.9629 Y203.6027
G01 X77.9518 Y203.5841
G01 X77.9392 Y203.5645
G01 X77.9253 Y203.5437
G01 X77.9100 Y203.5219
G01 X77.8755 Y203.4751
G01 X77.8562 Y203.4502
G01 X77.8140 Y203.3974
G01 X77.7909 Y203.3695
G01 X77.7413 Y203.3109
G01 X77.7147 Y203.2802
G01 X77.6580 Y203.2162
G01 X77.5969 Y203.1487
G01 X77.5314 Y203.0779
G01 X77.4255 Y202.9659
G01 X77.3500 Y202.8875
G01 X77.2707 Y202.8063
G01 X77.1452 Y202.6795
G01 X77.0572 Y202.5919
G01 X76.9661 Y202.5019
G01 X76.8239 Y202.3630
G01 X76.7255 Y202.2679
G01 X76.6245 Y202.1709
G01 X76.4154 Y201.9721
G01 X76.1977 Y201.7677
G01 X76.0295 Y201.6115
G01 X75.8000 Y201.4000
G01 X73.5000 Y199.5000
G01 X75.4000 Y201.8000
G01 X75.6140 Y202.0480
G01 X75.7512 Y202.2052
G01 X75.8182 Y202.2813
G01 X75.9490 Y202.4286
G01 X76.0127 Y202.4998
G01 X76.1371 Y202.6374
G01 X76.1976 Y202.7037
G01 X76.3156 Y202.8315
G01 X76.3730 Y202.8930
G01 X76.4846 Y203.0110
G01 X76.5389 Y203.0676
G01 X76.6443 Y203.1760
G01 X76.6954 Y203.2277
G01 X76.7946 Y203.3264
G01 X76.8426 Y203.3733
G01 X76.9356 Y203.4623
G01 X76.9806 Y203.5044
G01 X77.0675 Y203.5838
G01 X77.1095 Y203.6211
G01 X77.1504 Y203.6568
G01 X77.1903 Y203.6909
G01 X77.2292 Y203.7234
G01 X77.2672 Y203.7543
G01 X77.3041 Y203.7836
G01 X77.3400 Y203.8114
G01 X77.3750 Y203.8375
G01 X77.4090 Y203.8620
G01 X77.4420 Y203.8850
G01 X77.4740 Y203.9064
G01 X77.5050 Y203.9262
G01 X77.5350 Y203.9444
G01 X77.5641 Y203.9610
G01 X77.5922 Y203.9760
G01 X77.6194 Y203.9895
G01 X77.6456 Y204.0014
G01 X77.6708 Y204.0117
G01 X77.6951 Y204.0204
G01 X77.7184 Y204.0276
G01 X77.7407 Y204.0332
G01 X77.7621 Y204.0372
G01 X77.7826 Y204.0397
G01 X77.8021 Y204.0406
G01 X77.8207 Y204.0399
G01 X77.8384 Y204.0376
G01 X77.8551 Y204.0338
G01 X77.8709 Y204.0285
G01 X77.8858 Y204.0216
G01 X77.8997 Y204.0131
G01 X77.9127 Y204.0030
G01 X77.9248 Y203.9915
G01 X77.9360 Y203.9783
G01 X77.9463 Y203.9636
G01 X77.9557 Y203.9474
G01 X77.9641 Y203.9296
G01 X77.9717 Y203.9102
G01 X77.9784 Y203.8894
G01 X77.9841 Y203.8669
G01 X77.9890 Y203.8430
G01 X77.9930 Y203.8174
G01 X77.9960 Y203.7904
G01 X77.9982 Y203.7618
G01 X77.9996 Y203.7317
G01 X78.0000 Y203.7000
G00 Z2.0000
G00 X224.1000 Y112.3000
G01 F60.00
G01 Z-2.4000
G01 F120.00
G01 X224.2253 Y112.1450
G01 X224.3413 Y112.0000
G01 X224.4480 Y111.8649
G01 X224.5453 Y111.7398
G01 X224.6333 Y111.6245
G01 X224.7120 Y111.5192
G01 X224.7813 Y111.4237
G01 X224.8125 Y111.3797
G01 X224.8413 Y111.3381
G01 X224.8678 Y111.2990
G01 X224.8920 Y111.2623
G01 X224.9138 Y111.2281
G01 X224.9333 Y111.1963
G01 X224.9505 Y111.1670
G01 X224.9653 Y111.1401
G01 X224.9778 Y111.1156
G01 X224.9880 Y111.0936
G01 X224.9958 Y111.0740
G01 X225.0013 Y111.0569
G01 X225.0045 Y111.0421
G01 X225.0053 Y111.0298
G01 X225.0038 Y111.0200
G01 X225.0000 Y111.0125
G01 X224.9938 Y111.0075
G01 X224.9853 Y111.0048
G01 X224.9745 Y111.0046
G01 X224.9613 Y111.0068
G01 X224.9458 Y111.0114
G01 X224.9280 Y111.0184
G01 X224.9078 Y111.0278
G01 X224.8853 Y111.0396
G01 X224.8605 Y111.0538
G01 X224.8333 Y111.0704
G01 X224.8038 Y111.0893
G01 X224.7720 Y111.1107
G01 X224.7378 Y111.1344
G01 X224.7013 Y111.1606
G01 X224.6625 Y111.1891
G01 X224.6213 Y111.2199
G01 X224.5778 Y111.2532
G01 X224.4838 Y111.3268
G01 X224.3805 Y111.4098
G01 X224.3253 Y111.4549
G01 X224.2080 Y111.5521
G01 X224.1458 Y111.6042
G01 X224.0145 Y111.7155
G01 X223.9453 Y111.7747
G01 X223.8000 Y111.9000
G01 X223.7187 Y111.9625
G01 X223.6392 Y112.0242
G01 X223.5617 Y112.0852
G01 X223.4860 Y112.1453
G01 X223.4122 Y112.2046
G01 X223.3403 Y112.2631
G01 X223.2702 Y112.3208
G01 X223.2021 Y112.3776
G01 X223.1358 Y112.4336
G01 X223.0715 Y112.4888
G01 X223.0090 Y112.5430
G01 X222.9485 Y112.5965
G01 X222.8898 Y112.6490
G01 X222.8331 Y112.7007
G01 X222.7783 Y112.7515
G01 X222.7253 Y112.8014
G01 X222.6743 Y112.8504
G01 X222.6252 Y112.8985
G01 X222.5781 Y112.9457
G01 X222.5328 Y112.9919
G01 X222.4895 Y113.0372
G01 X222.4481 Y113.0816
G01 X222.4086 Y113.1250
G01 X222.3710 Y113.1675
G01 X222.3354 Y113.2090
G01 X222.3018 Y113.2496
G01 X222.2700 Y113.2891
G01 X222.2402 Y113.3277
G01 X222.2124 Y113.3653
G01 X222.1865 Y113.4019
G01 X222.1625 Y113.4375
G01 X222.1405 Y113.4721
G01 X222.1204 Y113.5056
G01 X222.1023 Y113.5381
G01 X222.0862 Y113.5696
G01 X222.0720 Y113.6001
G01 X222.0598 Y113.6294
G01 X222.0496 Y113.6578
G01 X222.0413 Y113.6850
G01 X222.0350 Y113.7112
G01 X222.0306 Y113.7363
G01 X222.0283 Y113.7603
G01 X222.0279 Y113.7832
G01 X222.0295 Y113.8051
G01 X222.0331 Y113.8257
G01 X222.0387 Y113.8453
G01 X222.0462 Y113.8638
G01 X222.0558 Y113.8811
G01 X222.0673 Y113.8973
G01 X222.0809 Y113.9123
G01 X222.0964 Y113.9261
G01 X222.1139 Y113.9388
G01 X222.1335 Y113.9503
G01 X222.1550 Y113.9607
G01 X222.1786 Y113.9698
G01 X222.2042 Y113.9778
G01 X222.2318 Y113.9845
G01 X222.2614 Y113.9901
G01 X222.2930 Y113.9944
G01 X222.3266 Y113.9975
G01 X222.3623 Y113.9994
G01 X222.4000 Y114.0000
G01 X222.4133 Y113.9990
G01 X222.4281 Y113.9959
G01 X222.4444 Y113.9908
G01 X222.4621 Y113.9837
G01 X222.4812 Y113.9747
G01 X222.5018 Y113.9639
G01 X222.5236 Y113.9511
G01 X222.5468 Y113.9366
G01 X222.5712 Y113.9202
G01 X222.5968 Y113.9022
G01 X222.6236 Y113.8824
G01 X222.6516 Y113.8609
G01 X222.6806 Y113.8379
G01 X222.7108 Y113.8132
G01 X222.7419 Y113.7870
G01 X222.7741 Y113.7593
G01 X222.8412 Y113.6994
G01 X222.8761 Y113.6674
G01 X222.9484 Y113.5992
G01 X223.0238 Y113.5260
G01 X223.1019 Y113.4479
G01 X223.1419 Y113.4071
G01 X223.2236 Y113.3223
G01 X223.3072 Y113.2334
G01 X223.3926 Y113.1407
G01 X223.4358 Y113.0931
G01 X223.5232 Y112.9953
G01 X223.6114 Y112.8946
G01 X223.7003 Y112.7911
G01 X223.7895 Y112.6852
G01 X223.8342 Y112.6314
G01 X223.9233 Y112.5225
G01 X224.0120 Y112.4119
G01 X224.1000 Y112.3000
G00 Z2.0000
G00 X440.3000 Y230.0000
G01 F60.00
G01 Z-2.4000
G01 F120.00
G01 X440.3226 Y229.9140
G01 X440.3432 Y229.8297
G01 X440.3618 Y229.7473
G01 X440.3783 Y229.6667
G01 X440.3929 Y229.5882
G01 X440.4055 Y229.5116
G01 X440.4161 Y229.4372
G01 X440.4249 Y229.3650
G01 X440.4317 Y229.2950
G01 X440.4366 Y229.2274
G01 X440.4397 Y229.1623
G01 X440.4409 Y229.0996
G01 X440.4403 Y229.0395
G01 X440.4380 Y228.9821
G01 X440.4338 Y228.9274
G01 X440.4279 Y228.8755
G01 X440.4203 Y228.8265
G01 X440.4110 Y228.7805
G01 X440.4000 Y228.7375
G01 X440.3873 Y228.6976
G01 X440.3730 Y228.6609
G01 X440.3571 Y228.6275
G01 X440.3396 Y228.5975
G01 X440.3205 Y228.5708
G01 X440.2998 Y228.5477
G01 X440.2776 Y228.5281
G01 X440.2539 Y228.5122
G01 X440.2288 Y228.5000
G01 X440.2021 Y228.4916
G01 X440.1740 Y228.4871
G01 X440.1445 Y228.4866
G01 X440.1136 Y228.4900
G01 X440.0813 Y228.4976
G01 X440.0477 Y228.5094
G01 X440.0127 Y228.5255
G01 X439.9764 Y228.5459
G01 X439.9388 Y228.5707
G01 X439.9000 Y228.6000
G01 X439.8661 Y228.6214
G01 X439.8325 Y228.6446
G01 X439.7992 Y228.6695
G01 X439.7663 Y228.6962
G01 X439.7339 Y228.7245
G01 X439.7018 Y228.7544
G01 X439.6702 Y228.7859
G01 X439.6390 Y228.8189
G01 X439.6083 Y228.8534
G01 X439.5781 Y228.8893
G01 X439.5484 Y228.9266
G01 X439.5193 Y228.9651
G01 X439.4907 Y229.0050
G01 X439.4628 Y229.0460
G01 X439.4354 Y229.0883
G01 X439.4086 Y229.1316
G01 X439.3825 Y229.1761
G01 X439.3571 Y229.2215
G01 X439.3324 Y229.2679
G01 X439.3083 Y229.3153
G01 X439.2850 Y229.3635
G01 X439.2625 Y229.4125
G01 X439.2407 Y229.4623
G01 X439.2198 Y229.5128
G01 X439.1996 Y229.5641
G01 X439.1803 Y229.6159
G01 X439.1618 Y229.6683
G01 X439.1443 Y229.7213
G01 X439.1276 Y229.7747
G01 X439.1118 Y229.8285
G01 X439.0970 Y229.8828
G01 X439.0832 Y229.9373
G01 X439.0703 Y229.9922
G01 X439.0585 Y230.0473
G01 X439.0476 Y230.1025
G01 X439.0379 Y230.1579
G01 X439.0292 Y230.2134
G01 X439.0216 Y230.2689
G01 X439.0151 Y230.3244
G01 X439.0097 Y230.3799
G01 X439.0055 Y230.4352
G01 X439.0025 Y230.4904
G01 X439.0006 Y230.5453
G01 X439.0000 Y230.6000
G01 X439.0004 Y230.6820
G01 X439.0016 Y230.7613
G01 X439.0036 Y230.8380
G01 X439.0063 Y230.9121
G01 X439.0099 Y230.9835
G01 X439.0141 Y231.0523
G01 X439.0191 Y231.1184
G01 X439.0248 Y231.1819
G01 X439.0312 Y231.2428
G01 X439.0384 Y231.3010
G01 X439.0462 Y231.3567
G01 X439.0546 Y231.4097
G01 X439.0638 Y231.4602
G01 X439.0735 Y231.5080
G01 X439.0839 Y231.5532
G01 X439.0949 Y231.5959
G01 X439.1065 Y231.6360
G01 X439.1188 Y231.6734
G01 X439.1315 Y231.7083
G01 X439.1449 Y231.7407
G01 X439.1588 Y231.7705
G01 X439.1732 Y231.7977
G01 X439.1882 Y231.8223
G01 X439.2037 Y231.8444
G01 X439.2197 Y231.8640
G01 X439.2362 Y231.8810
G01 X439.2531 Y231.8955
G01 X439.2705 Y231.9075
G01 X439.2884 Y231.9169
G01 X439.3067 Y231.9238
G01 X439.3254 Y231.9282
G01 X439.3446 Y231.9300
G01 X439.3641 Y231.9294
G01 X439.3840 Y231.9263
G01 X439.4043 Y231.9206
G01 X439.4250 Y231.9125
G01 X439.4460 Y231.9019
G01 X439.4673 Y231.8888
G01 X439.4890 Y231.8732
G01 X439.5110 Y231.8551
G01 X439.5332 Y231.8346
G01 X439.5558 Y231.8116
G01 X439.5786 Y231.7862
G01 X439.6017 Y231.7583
G01 X439.6250 Y231.7279
G01 X439.6486 Y231.6951
G01 X439.6723 Y231.6599
G01 X439.6963 Y231.6222
G01 X439.7205 Y231.5821
G01 X439.7448 Y231.5396
G01 X439.7693 Y231.4946
G01 X439.7940 Y231.4473
G01 X439.8188 Y231.3975
G01 X439.8438 Y231.3453
G01 X439.8688 Y231.2907
G01 X439.8940 Y231.2337
G01 X439.9192 Y231.1744
G01 X439.9445 Y231.1126
G01 X439.9699 Y231.0485
G01 X439.9954 Y230.9819
G01 X440.0209 Y230.9131
G01 X440.0464 Y230.8418
G01 X440.0719 Y230.7682
G01 X440.0974 Y230.6922
G01 X440.1229 Y230.6138
G01 X440.1484 Y230.5332
G01 X440.1738 Y230.4501
G01 X440.1992 Y230.3648
G01 X440.2245 Y230.2771
G01 X440.2498 Y230.1870
G01 X440.2749 Y230.0947
G01 X440.3000 Y230.0000
G00 Z2.0000
G00 X435.4000 Y246.3000
G01 F60.00
G01 Z-2.4000
G01 F120.00
G01 X435.6337 Y245.5066
G01 X435.8592 Y244.7375
G01 X436.0766 Y243.9929
G01 X436.2858 Y243.2728
G01 X436.4869 Y242.5771
G01 X436.6799 Y241.9059
G01 X436.8647 Y241.2591
G01 X437.0660 Y240.5498
